public/assets/signin/ok.svg

<svg width="24" height="25" viewBox="0 0 24 25" fill="none" xmlns="http://www.w3.org/2000/svg">
<g id="24/ ok">
<g id="Vector">
<path fill-rule="evenodd" clip-rule="evenodd" d="M6.94929 7.52302C6.93429 10.279 9.17429 12.559 11.9063 12.569C14.6663 12.578 16.9213 10.35 16.9363 7.60002C16.9493 4.78502 14.7303 2.50702 11.9663 2.50002C9.20729 2.49302 6.96529 4.73702 6.94929 7.52302ZM14.2074 6.58967C14.3293 6.88774 14.3911 7.20697 14.3893 7.52902V7.53002C14.3934 7.85215 14.3336 8.17191 14.2135 8.47082C14.0933 8.76973 13.9151 9.04187 13.6891 9.27153C13.4632 9.50119 13.194 9.6838 12.8971 9.80884C12.6002 9.93388 12.2815 9.99885 11.9593 10C11.6371 10.0025 11.3177 9.94128 11.0193 9.81982C10.7209 9.69836 10.4494 9.51907 10.2206 9.29229C9.99177 9.0655 9.81006 8.79569 9.68592 8.4984C9.56179 8.2011 9.49768 7.88219 9.49729 7.56002C9.49171 7.23499 9.55095 6.9121 9.67155 6.61022C9.79215 6.30834 9.97169 6.03352 10.1997 5.8018C10.4277 5.57008 10.6996 5.38611 10.9994 5.26064C11.2993 5.13516 11.6212 5.0707 11.9463 5.07102C12.2683 5.07114 12.5872 5.13492 12.8845 5.25867C13.1818 5.38243 13.4518 5.56373 13.6788 5.79214C13.9058 6.02056 14.0855 6.2916 14.2074 6.58967Z" fill="#202020"/>
<path d="M6.88017 15.038C8.06217 15.969 9.44317 16.349 10.9742 16.509C10.935 16.5514 10.9009 16.5889 10.8697 16.6232C10.8149 16.6835 10.7693 16.7335 10.7222 16.782C10.386 17.1212 10.0499 17.4606 9.71369 17.8C8.927 18.5943 8.14007 19.3889 7.35117 20.182C7.11817 20.416 6.95117 20.676 6.93517 21.018C6.91017 21.523 7.22217 22.024 7.71017 22.264C8.17017 22.488 8.64217 22.417 9.03817 22.024C9.92217 21.147 10.7992 20.266 11.6622 19.371C11.8782 19.147 11.9962 19.098 12.2412 19.356C12.8047 19.9497 13.3831 20.529 13.9615 21.1085C14.2463 21.3937 14.5311 21.679 14.8142 21.966C15.0392 22.193 15.2912 22.355 15.6142 22.378C16.1252 22.413 16.6452 22.084 16.8782 21.584C17.0912 21.126 17.0102 20.639 16.6242 20.245C15.8986 19.5066 15.1693 18.7711 14.4403 18.0359C14.03 17.622 13.6197 17.2082 13.2102 16.794C13.1455 16.7285 13.0936 16.6711 13.0078 16.5762C12.9887 16.5551 12.968 16.5322 12.9452 16.507C13.7822 16.407 14.6292 16.255 15.4022 15.953C16.2192 15.634 16.9552 15.177 17.5662 14.544C17.9652 14.133 17.9692 13.613 17.6452 13.083C17.3622 12.618 16.8702 12.423 16.3422 12.559C16.0712 12.629 15.8372 12.767 15.6172 12.937C13.4062 14.434 10.3792 14.392 8.17617 12.868C8.06717 12.793 7.95517 12.722 7.83717 12.667C7.22617 12.376 6.63817 12.511 6.28817 13.017C5.87817 13.607 5.93017 14.181 6.44817 14.681C6.55471 14.7843 6.67346 14.8768 6.79205 14.9691C6.8215 14.992 6.85093 15.0149 6.88017 15.038Z" fill="#202020"/>
</g>
</g>
</svg>

<svg width="24" height="25" fill="none" xmlns="http://www.w3.org/2000/svg"><g fill="#202020"><path fill-rule="evenodd" clip-rule="evenodd" d="M6.95 7.523c-.016 2.756 2.224 5.036 4.956 5.046 2.76.009 5.015-2.219 5.03-4.969.013-2.815-2.206-5.093-4.97-5.1-2.759-.007-5 2.237-5.017 5.023Zm7.257-.933c.122.298.184.617.182.939v.001A2.44 2.44 0 0 1 11.96 10a2.443 2.443 0 0 1-2.462-2.44 2.447 2.447 0 0 1 4.71-.97Z"/><path d="M6.88 15.038c1.182.931 2.563 1.311 4.094 1.471l-.104.114c-.055.06-.1.11-.148.159L9.714 17.8c-.787.794-1.574 1.589-2.363 2.382-.233.234-.4.494-.416.836-.025.505.287 1.006.775 1.246.46.224.932.153 1.328-.24a168.24 168.24 0 0 0 2.624-2.653c.216-.224.334-.273.58-.015.563.594 1.141 1.173 1.72 1.752.284.286.57.571.852.858.225.227.477.389.8.412.511.035 1.031-.294 1.264-.794.213-.458.132-.945-.254-1.339-.725-.738-1.455-1.474-2.184-2.21l-1.23-1.241a6.414 6.414 0 0 1-.202-.218c-.02-.02-.04-.044-.063-.069.837-.1 1.684-.252 2.457-.554.817-.319 1.553-.776 2.164-1.409.4-.411.403-.931.08-1.461-.284-.465-.776-.66-1.304-.524-.27.07-.505.208-.725.378-2.21 1.497-5.238 1.455-7.44-.069a2.38 2.38 0 0 0-.34-.201c-.61-.291-1.199-.156-1.549.35-.41.59-.358 1.164.16 1.664.107.103.225.196.344.288l.088.069Z"/></g></svg>
